build/redact/BorderStyleOutline.svg

<svg xmlns="http://www.w3.org/2000/svg" fill="none" viewBox="0 0 24 24" focusable="false"><path d="M0 0H24V24H0z"/><path fill="#74767B" fill-rule="evenodd" d="M4.00342 6.65244C4.00342 6.29346 4.29443 6.00244 4.65342 6.00244L19.3534 6.00244C19.7124 6.00244 20.0034 6.29346 20.0034 6.65244C20.0034 7.01143 19.7124 7.30244 19.3534 7.30244L4.65342 7.30244C4.29443 7.30244 4.00342 7.01143 4.00342 6.65244ZM4.00342 12.0001C4.00342 11.6411 4.29443 11.3501 4.65342 11.3501L10.3435 11.3501C10.7025 11.3501 10.9936 11.6411 10.9936 12.0001C10.9936 12.3591 10.7025 12.6501 10.3436 12.6501L4.65342 12.6501C4.29443 12.6501 4.00342 12.3591 4.00342 12.0001ZM13.0075 12.0001C13.0075 11.6411 13.2985 11.3501 13.6575 11.3501L19.3534 11.3501C19.7124 11.3501 20.0034 11.6411 20.0034 12.0001C20.0034 12.3591 19.7124 12.6501 19.3534 12.6501L13.6575 12.6501C13.2985 12.6501 13.0075 12.3591 13.0075 12.0001ZM4.00342 17.3502C4.00342 16.9912 4.29443 16.7002 4.65342 16.7002L5.84854 16.7002C6.20752 16.7002 6.49854 16.9912 6.49854 17.3502C6.49854 17.7092 6.20752 18.0002 5.84854 18.0002L4.65342 18.0002C4.29443 18.0002 4.00342 17.7092 4.00342 17.3502ZM8.49854 17.3502C8.49854 16.9912 8.78955 16.7002 9.14853 16.7002L10.3435 16.7002C10.7025 16.7002 10.9935 16.9912 10.9935 17.3502C10.9935 17.7092 10.7025 18.0002 10.3435 18.0002L9.14853 18.0002C8.78955 18.0002 8.49854 17.7092 8.49854 17.3502ZM12.9935 17.3502C12.9935 16.9912 13.2845 16.7002 13.6435 16.7002L14.8386 16.7002C15.1976 16.7002 15.4886 16.9912 15.4886 17.3502C15.4886 17.7092 15.1976 18.0002 14.8386 18.0002L13.6435 18.0002C13.2845 18.0002 12.9935 17.7092 12.9935 17.3502ZM17.4886 17.3502C17.4886 16.9912 17.7797 16.7002 18.1386 16.7002L19.3336 16.7002C19.6926 16.7002 19.9836 16.9912 19.9836 17.3502C19.9836 17.7092 19.6926 18.0002 19.3336 18.0002L18.1386 18.0002C17.7797 18.0002 17.4886 17.7092 17.4886 17.3502Z"/></svg>

<svg xmlns="http://www.w3.org/2000/svg" fill="none" viewBox="0 0 24 24" focusable="false"><path fill="#74767B" fill-rule="evenodd" d="M4 6.65c0-.36.29-.65.65-.65h14.7c.36 0 .65.29.65.65s-.29.65-.65.65H4.65c-.36 0-.65-.29-.65-.65M4 12c0-.36.29-.65.65-.65h5.69c.36 0 .65.29.65.65 0 .35-.29.65-.65.65H4.65c-.36 0-.65-.3-.65-.65m9 0c0-.36.29-.65.65-.65h5.7c.36 0 .65.29.65.65 0 .35-.29.65-.65.65h-5.7c-.36 0-.65-.3-.65-.65m-9 5.35c0-.36.29-.65.65-.65h1.19c.36 0 .65.29.65.65 0 .35-.29.65-.65.65H4.65c-.36 0-.65-.3-.65-.65m4.49 0c0-.36.29-.65.65-.65h1.2c.36 0 .65.29.65.65 0 .35-.29.65-.65.65h-1.2c-.36 0-.65-.3-.65-.65m4.5 0c0-.36.29-.65.65-.65h1.19c.36 0 .65.29.65.65 0 .35-.29.65-.65.65h-1.19c-.36 0-.65-.3-.65-.65m4.49 0c0-.36.29-.65.65-.65h1.2c.36 0 .65.29.65.65 0 .35-.29.65-.65.65h-1.2c-.36 0-.65-.3-.65-.65"/></svg>
